!!!!SEGMENT: pl-kk--kk-i-14--016_gorczycki-grzegorz-gerwazy--magnificet-te-domine.krn
!!!cenid: 17xx:2204
!!!COM: Gorczycki, Grzegorz Gerwazy
!!!COM-rismid: pe30009207
!!!CDT: ~1666-1734/04/30
!!!CNT: Polish
!!!OTL: Magnificet te Domine
!!!PDT:
!!!AGN: Sacred
!!!SMS-siglum: PL-Kk
!!!SMS-shelfmark: Kk.I.14
!!!SMS-shelfwork: 016 W
!!!SMS-variant:
!!!SMS-altvar:
!!!NIFC-rismid: 1001154410
!!!URL-scan: http://repozytorium.nifc.pl/skany/pl-kk-nut--i-14
!!!ONB-nifc: UWAGA: tylko w księdze B, skan 0021. Następny utwór: Ave mi Jesu
!!!AIN: 1 tenor
!!!key:
**kern	**text
*Itenor	*
*I"Tenor.	*
*I'T	*
*clefC4	*
*k[]	*
*a:	*
*M3/2	*
=1-	=1-
2rF	.
2rF	.
!LO:TX:t=P:problem=kreska pseudotaktowa	!
2A/	Ma-
=2-	=2-
2.A/	-gni-
4G/	.
4A/	.
!LO:TX:t=P:problem=kreska pseudotaktowa	!
4B\	.
=3-	=3-
2.c\	.
4c\	-fi-
!LO:TX:t=P:problem=kreska pseudotaktowa	!
2c\	-cet
=4-	=4-
2A/	te
2B-X\	D(o)mi-
!LO:TX:t=P:problem=kreska pseudotaktowa	!
2A/	-n(e)
=5-	=5-
2A/	.
2d\	tu-
4d\	-a
4d\	re-
!!LO:LB:g=original
=6-	=6-
2e\	-dem-
2e\	-pta
!LO:TX:t=P:problem=kreska pseudotaktowa	!
2e\	re-
=7-	=7-
2c\	-dem-
2d\	-pta
4B\ny	San-
!LO:TX:t=P:problem=kreska pseudotaktowa	!
4B\	.
=8-	=8-
1c	-gui-
!LO:TX:t=P:problem=kreska pseudotaktowa	!
2c\	-ne
=9-	=9-
2A/	Ma-
2B/	-gni-
!LO:TX:t=P:problem=kreska pseudotaktowa	!
2A/	-fi-
=10-	=10-
2A/	-cet
2r	.
!LO:TX:t=P:problem=kreska pseudotaktowa	!
2r	.
=11-	=11-
0.r	.
=12-	=12-
.	.
=13-	=13-
!LO:TX:t=P:problem=kreska pseudotaktowa	!
1.r	.
=14-	=14-
2rc	.
2d\	Chri-
!LO:TX:t=P:problem=kreska pseudotaktowa	!
2d\	-stia-
=15-	=15-
1c#X	-nae
!LO:TX:t=P:problem=kreska pseudotaktowa	!
2A/	.
=16-	=16-
4d\	lae-
4c\ny	.
4d\	.
4e\	.
4f\	.
!LO:TX:t=P:problem=kreska pseudotaktowa	!
4d\	.
=17-	=17-
1e	.
2d\	-ta-
!!LO:LB:g=original
=18-	=18-
2c\	-bun-
2c\	-dae
4c\	lae-
!LO:TX:t=P:problem=kreska pseudotaktowa	!
4c\	-ta
=19-	=19-
2d\	bun-
2e\	-dae
!LO:TX:t=P:problem=kreska pseudotaktowa	!
2f\	ple-
=20-	=20-
!LO:TX:t=P:problem=kreska pseudotaktowa	!
1.e	-bis
=21-	=21-
2.d\	a-
4d\	-ni-
!LO:TX:t=P:problem=kreska pseudotaktowa	!
2c#X\	-ma
=22-	=22-
2d\	ad
2cn\	al-
!LO:TX:t=P:problem=kreska pseudotaktowa	!
2B-X\	-ber
=23-	=23-
2A/	ti
2A/	vo-
!LO:TX:t=P:problem=kreska pseudotaktowa	!
2A/	-ti-
=24-	=24-
2B-X\	-va
2A/	.
!LO:TX:t=P:problem=kreska pseudotaktowa	!
2G/	ce-
=25-	=25-
4F/	.
4E/	.
4F/	.
4G/	.
4A/	.
!LO:TX:t=P:problem=kreska pseudotaktowa	!
4F/	.
!!LO:LB:g=original
=26-	=26-
2.B-X\	-le-
4c\	-brans
!LO:TX:t=P:problem=kreska pseudotaktowa	!
2d\	.
=27-	=27-
2B-X\	So-
2.c\	-lem-
!LO:TX:t=P:problem=kreska pseudotaktowa	!
4c\	-ni-
=28-	=28-
!LO:TX:t=P:problem=kreska pseudotaktowa	!
1.F	-a
=29-	=29-
1A	Cu-
!LO:TX:t=P:problem=kreska pseudotaktowa	!
2Bn\	-j(us)
=30-	=30-
1A	mor-
!LO:TX:t=P:problem=kreska pseudotaktowa	!
2A/	-te
=31-	=31-
1B	pre-
!LO:TX:t=P:problem=kreska pseudotaktowa	!
2G/	-ti-
=32-	=32-
1d	-o-
!LO:TX:t=P:problem=kreska pseudotaktowa	!
2d\	-sa
=33-	=33-
2d\	de-
2d\	-vo-
!LO:TX:t=P:problem=kreska pseudotaktowa	!
2c\	-ta
=34-	=34-
1c	pro-
!LO:TX:t=P:problem=kreska pseudotaktowa	!
2c\	-mit
=35-	=35-
1B-X	.
!LO:TX:t=P:problem=kreska pseudotaktowa	!
2A/	gau-
=36-	=36-
!LO:TX:t=P:problem=kreska pseudotaktowa	!
1.A	-dia
!!LO:PB:g=original
=37-	=37-
1c	ut
!LO:TX:t=P:problem=kreska pseudotaktowa	!
2c\	per
=38-	=38-
1A	e-
!LO:TX:t=P:problem=kreska pseudotaktowa	!
2A/	-i(us)
=39-	=39-
2d\	Suf-
2B-X\	-fra-
4c\	.
!LO:TX:t=P:problem=kreska pseudotaktowa	!
4c\	-gia
=40-	=40-
!LO:TX:t=P:problem=kreska pseudotaktowa	!
1.c	.
=41-	=41-
1c	tu-
!LO:TX:t=P:problem=kreska pseudotaktowa	!
2A/	-a
=42-	=42-
2c\	im-
4c\	-pe-
4c\	-tret
!LO:TX:t=P:problem=kreska pseudotaktowa	!
2A/	be-
=43-	=43-
2B-X\	-ne-
2.A/	-fi-
!LO:TX:t=P:problem=kreska pseudotaktowa	!
4A/	-ci-
=44-	=44-
2A/	-(um)
2d\	.
!LO:TX:t=P:problem=kreska pseudotaktowa	!
2d\	.
=45-	=45-
*	*ij
2.e\	be-
4e\	-ne-
2e\	-fi-
!!LO:LB:g=original
=46-	=46-
2c\	-ci-
2d\	-(um)
*	*Xij
4B\ny	.
!LO:TX:t=P:problem=kreska pseudotaktowa	!
4B\	.
=47-	=47-
!LO:TX:t=P:problem=kreska pseudotaktowa	!
1.c	.
=48-	=48-
2e\	al-
2e\	-le-
!LO:TX:t=P:problem=kreska pseudotaktowa	!
2c\	-lu-
=49-	=49-
!LO:TX:t=P:problem=kreska pseudotaktowa	!
1.c	-ia
=50-	=50-
*	*ij
2c\	al-
2c\	-le-
!LO:TX:t=P:problem=kreska pseudotaktowa	!
2A/	-lu-
=51-	=51-
!LO:TX:t=P:problem=kreska pseudotaktowa	!
1.A	-ia
=52-	=52-
2c\	al-
2d\	-le-
!LO:TX:t=P:problem=kreska pseudotaktowa	!
2A/	-lu-
=53-	=53-
1A	-ia
!LO:TX:t=P:problem=kreska pseudotaktowa	!
2d\	al-
=54-	=54-
1d	-le-
!LO:TX:a:t=P:problem=# above	!
2c#X\	-lu-
=55-	=55-
0.d;;	-ia-
*	*Xij
=56-	=56-
.	.
=-	=-
*-	*-
!!!EED: Antoni Szymański
!!!EST: 2021-07-19
!!!ENC: Anastazja Marusiak
!!!END: 2021-07-01
